!!!OTL: WIR LEBEN WIE DIE GROSSEN HERREN
!!!ARE: Europa, Mitteleuropa, Deutschland
!!!SCT: B0572
!!!YEM: Copyright 1995, estate of Helmut Schaffrath.
**kern
*ICvox
*Ivox
*M4/4
*k[]
*C:
{4G
=1
2c
2G
=2
4E
4C
4E
4G
=3
4E
8D
8E
4C}
{4c
=4
4B
4c
4d
4G
=5
2c
2A
=6
2G
4r}
{4G
=7
2c
2G
=8
4E
4C
4E
4G
=9
4E
8D
8E
4C}
{4c
=10
4B
4c
4d
4G
=11
2c
2A
=12
2G
4r}
{4d
=13
2d
2G
=14
4d
4e
4f
4d
=15
4e
8d
8e
4c}
{4e
=16
4c
4d
4e
4A
=17
2d
2B
=18
2.A}
{4G
=19
2c
2G
=20
4E
4C
4G
4B-
=21
4A
8G
8A
4F}
{4f
=22
4e
4f
4g
4c
=23
2f
2d
=24
2.c}
==
!!!AGN: Staende -, Soldaten - Lied
!!!ONB: ESAC (Essen Associative Code) Database: BOEHME
!!!AMT: simple quadruple
!!!AIN: vox
!!!EED: Helmut Schaffrath
!!!EEV: 1.0
*-
